X:34
T:Nonesuch - Ddor
R:reel
H: Nonesuch was built in 1538 by Henry VIII over the demolished property of the village of Cuddington,
H: near Epsom Wells in Sussex, to be the most ostentatious hunting lodge ever made.  At the very end
H: of her life, Elizabeth I visited Nonesuch, as a guest of Lord Lumley, son-in-law of the Earl of
H: Arundel, and it was reported that "there is much dancing of country dances in the privy chamber
H: at Nonesuch, before the Queen's majesty, who is exceedingly pleased therewith".
O:England
M:C|
L:1/4
K:DDor
"A" a |: "Dm" af ga |      fe/2f/2 da |     af ga |1      f2 da  :|2 f2 d ||
"B" e |: "C"  ec de | "Dm" fe/2f/2 de | "C" ec de |1 "Dm" f2 de  :|2 f2 d |]
